X: 1
T:Contradiction, The
M:4/4
L:1/8
R:reel
K:A
c3A B~E3|CEAc dfed|cBAG ABce|fagb afed|
c2cA B~E3|CEAc dfed|cBAG ABce|(3fga gb a3|| 
e|agab aece (3dcB BA|GABc|A2 ag aece|(3dcB BA EAA2|
agab aecA|dcBA GABc|Acec Adfa|gbeg a3||
e|cefe cefe|(3fga ec BAGB|cefe cefe|(3fga gb afed|
cefe cefe|(3fga ec B3c|ecea fdfa gbeg a3||
